X:1
T:Title
%%score { ( 1 4 ) | ( 2 3 ) }
L:1/8
Q:1/4=94
M:4/4
K:Ab
V:1 treble nm="Grand Piano"
V:4 treble 
V:2 bass 
V:3 bass 
V:1
 F2 =EF [EG]2 FG | [FA]4 z4 | =E2 .E2 [EG]2 FG | [FA]4 z4 | [Ac]2 [Ac]d [Ac][GB] .[FA]2 | %5
w: ????~???? * * * * *|||||
 [FA]4 z4 | [Ac]2 [Ac]d [Ac][GB][FA]G | AGF=E F4 | [Ac]2 [Ac]d [Ac][GB][FA]G | z4 F4[K:bass] |] %10
w: |||||
V:2
 z4 z2 C2 | F,A, z[K:treble] B[K:bass] =E,4 | z2[K:treble] C2[K:bass] z2 C2 | F,A,A,=E, F,4 | %4
 z2[K:treble] C2[K:bass] z2[K:treble] D2 | F,A,A,[K:treble][B,DG] [F,A,CF]4 | %6
 z2[K:treble] C2[K:bass] z4 | [F,F][B,C=E][A,C][=E,B,C] [F,A,C]2 F,,2 | %8
 z2[K:treble] C2[K:bass] z4 | [F,F][B,C=E][A,C][=E,B,C] [F,A,C]2 z2 |] %10
V:3
 F,2 A,C =E,B, z =E | z2 A,2[K:treble][K:bass] z4 | =E,B,[K:treble] z F[K:bass] E,B, z =E | x8 | %4
 F,A,[K:treble] z B[K:bass] F,B,[K:treble] z G | x3[K:treble] x5 | %6
 F,A,[K:treble] z B[K:bass] F,B, D2 | x8 | F,A,[K:treble] z B[K:bass] F,B, D2 | x8 |] %10
V:4
 x8 | z C C2 [B,C=EG]4 | x8 | z CC[B,C=EG] [A,CF]4 | x8 | z CCB c4 | x8 | x8 | x8 | %9
 AGF=E z2[K:bass] F,,2 |] %10

